X:1
T:Hardiman The Fiddler
M:9/8
L:1/8
R:slip jig
K:Dmix
|:"D"A2G FDE F2G|A2A AGA cAG|A2G FDE F2G|Add ded cAG:|
Add d2e f3|Add ded cAG|Add d2e f2g|agf ged cAG|
Add d2e f3|Add ded cAG|dcA B/^c/de f2g|agf ged cAG||
